styles/2/Numix/24/places/default-folder-books.svg

<?xml version="1.0" encoding="UTF-8" standalone="no"?>
<svg
   xmlns:dc="http://purl.org/dc/elements/1.1/"
   xmlns:cc="http://creativecommons.org/ns#"
   xmlns:rdf="http://www.w3.org/1999/02/22-rdf-syntax-ns#"
   xmlns:svg="http://www.w3.org/2000/svg"
   xmlns="http://www.w3.org/2000/svg"
   xmlns:sodipodi="http://sodipodi.sourceforge.net/DTD/sodipodi-0.dtd"
   xmlns:inkscape="http://www.inkscape.org/namespaces/inkscape"
   width="24"
   height="24"
   viewBox="0 0 24 24"
   id="svg2"
   version="1.1"
   inkscape:version="0.91 r"
   sodipodi:docname="default-folder-books.svg">
  <metadata
     id="metadata14">
    <rdf:RDF>
      <cc:Work
         rdf:about="">
        <dc:format>image/svg+xml</dc:format>
        <dc:type
           rdf:resource="http://purl.org/dc/dcmitype/StillImage" />
      </cc:Work>
    </rdf:RDF>
  </metadata>
  <defs
     id="defs12" />
  <sodipodi:namedview
     pagecolor="#ffffff"
     bordercolor="#666666"
     borderopacity="1"
     objecttolerance="10"
     gridtolerance="10"
     guidetolerance="10"
     inkscape:pageopacity="0"
     inkscape:pageshadow="2"
     inkscape:window-width="1366"
     inkscape:window-height="747"
     id="namedview10"
     showgrid="true"
     inkscape:zoom="8"
     inkscape:cx="18.677968"
     inkscape:cy="17.845946"
     inkscape:window-x="0"
     inkscape:window-y="21"
     inkscape:window-maximized="1"
     inkscape:current-layer="svg2">
    <inkscape:grid
       type="xygrid"
       id="grid2991"
       empspacing="5"
       visible="true"
       enabled="true"
       snapvisiblegridlinesonly="true" />
  </sodipodi:namedview>
  <path
     style="font-size:medium;font-style:normal;font-variant:normal;font-weight:normal;font-stretch:normal;text-indent:0;text-align:start;text-decoration:none;line-height:normal;letter-spacing:normal;word-spacing:normal;text-transform:none;direction:ltr;block-progression:tb;writing-mode:lr-tb;text-anchor:start;baseline-shift:baseline;color:#000000;fill:#e9b080;fill-opacity:1;fill-rule:nonzero;stroke:none;stroke-width:1.03313816;marker:none;visibility:visible;display:inline;overflow:visible;enable-background:accumulate;font-family:Sans;-inkscape-font-specification:Sans"
     d="m 4.0000115,3 c -0.5473306,0 -1,0.4096882 -1,1 l 0,1 -1,0 c -0.5019272,0 -1,0.3847489 -1,1 -1.522e-5,4.593749 0,9.40625 0,14 0,0.545771 0.4934173,1 1,1 l 20.0000005,0 c 0.515688,0 1,-0.437034 1,-1 l 0,-13 c 0,-0.5770209 -0.423105,-1 -1,-1 l -2,0 0,-2 c 0,-0.4874255 -0.401824,-1 -1,-1 z"
     id="path2995"
     inkscape:connector-curvature="0"
     sodipodi:nodetypes="ccccccssssscssc" />
  <path
     style="font-size:medium;font-style:normal;font-variant:normal;font-weight:normal;font-stretch:normal;text-indent:0;text-align:start;text-decoration:none;line-height:normal;letter-spacing:normal;word-spacing:normal;text-transform:none;direction:ltr;block-progression:tb;writing-mode:lr-tb;text-anchor:start;baseline-shift:baseline;color:#000000;fill:#000000;fill-opacity:0.32156863;fill-rule:nonzero;stroke:none;stroke-width:1.03313816;marker:none;visibility:visible;display:inline;overflow:visible;enable-background:accumulate;font-family:Sans;-inkscape-font-specification:Sans"
     d="m 4.0000115,3 c -0.5444543,0 -1,0.3988699 -1,1 l 0,1 -1,0 c -0.5067594,0 -1,0.3964676 -1,1 -2.592e-5,4.593749 0,9.40625 0,14 0,0.487177 0.4191986,1 1,1 l 20.0000005,0 c 0.521212,0 1,-0.442558 1,-1 l 0,-13 c 0,-0.5731146 -0.393904,-1 -1,-1 l -2,0 0,-2 c 0,-0.5585119 -0.457433,-1 -1,-1 z m 10.0000005,3 0,1 8,0 0,13 -20.0000005,0 0,-14 z"
     id="path3786"
     inkscape:connector-curvature="0"
     sodipodi:nodetypes="ssccccssssscsssccccccc" />
  <path
     sodipodi:nodetypes="ccccccccccccccccccccc"
     id="path53"
     d="m 13,19 0,-6.000001 -2,0 L 11,19 Z m -3,-7.000001 -3.0000002,-2.1661995 0,6.2500005 L 10,18.1669 Z M 17,16.0838 17,9.8337995 14,11.999999 14,18.1668 Z M 16.374999,8.9999995 c -1.874999,0 -3.124999,0.625 -4.375,1.6666995 C 10.75,9.6249995 9.5000002,8.9999995 7.6249998,8.9999995 L 11,11.499999 l 2,0 z"
     style="opacity:1;fill:#000000;fill-opacity:0.32156863;fill-rule:nonzero;stroke:none"
     inkscape:connector-curvature="0" />
</svg>

<svg xmlns="http://www.w3.org/2000/svg" viewBox="0 0 24 24">
 <path d="m 4 3 c -0.547 0 -1 0.41 -1 1 l 0 1 -1 0 c -0.502 0 -1 0.385 -1 1 0 4.594 0 9.406 0 14 0 0.546 0.493 1 1 1 l 20 0 c 0.516 0 1 -0.437 1 -1 l 0 -13 c 0 -0.577 -0.423 -1 -1 -1 l -2 0 0 -2 c 0 -0.487 -0.402 -1 -1 -1 z" style="visibility:visible;fill:#e9b080;fill-opacity:1;stroke:none;display:inline;color:#000;fill-rule:nonzero"/>
 <path d="m 4 3 c -0.544 0 -1 0.399 -1 1 l 0 1 -1 0 c -0.507 0 -1 0.396 -1 1 0 4.594 0 9.406 0 14 0 0.487 0.419 1 1 1 l 20 0 c 0.521 0 1 -0.443 1 -1 l 0 -13 c 0 -0.573 -0.394 -1 -1 -1 l -2 0 0 -2 c 0 -0.559 -0.457 -1 -1 -1 z m 10 3 0 1 8 0 0 13 -20 0 0 -14 z" style="visibility:visible;fill:#000;fill-opacity:0.322;stroke:none;display:inline;color:#000;fill-rule:nonzero"/>
 <path d="m 13 19 0 -6 -2 0 l 0 6 m -1 -7 -3 -2.166 0 6.25 l 3 2.083 m 7 -2.083 0 -6.25 -3 2.166 0 6.167 m 2.375 -9.167 c -1.875 0 -3.125 0.625 -4.375 1.667 c -1.25 -1.042 -2.5 -1.667 -4.375 -1.667 l 3.375 2.5 l 2 0 z" style="fill:#000;opacity:1;fill-opacity:0.322;stroke:none;fill-rule:nonzero"/>
</svg>
